X: 208
T: Now you're gang awa.
T: O'n a tha u falbh.
R: air, minuet
N: This is version 1, for ABC software that doesn't understand crescendo symbols
B: Simon Fraser's "Airs and Melodies Peculiar to the Highlands of Scotland and the Isles" p.96 #1
Z: 2022 John Chambers <jc:trillian.mit.edu>
M: 3/2
L: 1/4
Q: "Slow & Soft"
K: Dm
%%slurgraces yes
%%graceslurs yes
% = = = = = = = = = =
% Voice 1 reformatted for _ _-bar lines, for compactness and proofreading.
V: 1 staves=2
|:\
!p!A<d ~d>^c [A2F2] | "_cres"F<f Tf>g {fg}a>g |\
"_dim"Tf>e ~d>c [A2F2] | "_cresc. . ."(TA>^G A)~^c {c}d2 :|\
!p!Tf>e d>c [A2F2] | "_cres"F<f Tf>g {fg}a>g |
"_dim"Tf>d e>c [A2F2] | "_cresc. . ."(A>^G A)^c {c}d2 ||\
!p!Tf>d ec [A2F2] | "_cres"Tf>e fg a<c' |\
!f!yHa>"_dim"g ~f>e ~d>c | "_cresc. . ."(TA>^G A)~^c {c}d2 |]
% = = = = = = = = = =
% Voice 2 preserves the staff layout in the book.
V: 2 clef=bass middle=d
|:\
df aA d2 | fa c'c f2 | ac' ba f2 | fe fe d2 :| d'>c' b>a f2 | A f2 e f2 |
ab gc' f2 | fe fe d2 || df a2 f2 | ag ag f2 |!f!y Hfg a2 b2 | fe fe d2 |]
% = = = = = = = = = =
